X: 36368
T: Seán Mháire Mhicilín
R: reel
M: 4/4
K: Adorian
|:e2AA BAAd|e2de fddf|eAAA BAGB|dded BABd|
e2AA BAAd|e2fd edBd|g3ef3e|dded BABd:|
|:e2 aa bafb|afge fdBd|eaaa bafe|dfed Bddf|
e2 aa bafa|gbgf edBd|gbge f2 ef|dded BABd:|

